assets/lodgify/original.svg

<svg fill="none" height="20" viewBox="0 0 20 20" width="20" xmlns="http://www.w3.org/2000/svg" xmlns:xlink="http://www.w3.org/1999/xlink"><clipPath id="a"><path d="m0 0h20v20h-20z"/></clipPath><g clip-path="url(#a)"><path d="m15.748 0h-11.496c-2.348 0-4.252 1.87-4.252 4.179v11.641c0 2.31 1.904 4.18 4.252 4.18h11.496c2.348 0 4.252-1.87 4.252-4.179v-11.641c0-2.31-1.904-4.18-4.252-4.18" fill="#fff65b"/><path d="m7.81 15.767h6.474v-6.224l-6.324 3.838a.275.275 0 0 1 -.4-.35l3.637-8.943h-5.505v9.56c0 1.235.884 2.12 2.119 2.12z" fill="#141313"/></g></svg>

<svg xmlns="http://www.w3.org/2000/svg" width="20" height="20" fill="none" aria-label="Lodgify" viewBox="0 0 20 20"><title>Lodgify</title><g clip-path="url(#lodgify-clip)"><path fill="#fff65b" d="M15.748 0H4.252C1.904 0 0 1.87 0 4.179V15.82C0 18.13 1.904 20 4.252 20h11.496C18.096 20 20 18.13 20 15.821V4.18C20 1.87 18.096 0 15.748 0"/><path fill="#141313" d="M7.81 15.767h6.474V9.543L7.96 13.381a.275.275 0 0 1-.4-.35l3.637-8.943H5.692v9.56c0 1.235.884 2.12 2.119 2.12z"/></g><defs><clipPath id="lodgify-clip"><path fill="#fff" d="M0 0h20v20H0z"/></clipPath></defs></svg>
